X:244
T:The Sailor's Bonnet
R:reel
M:4/4
L:1/8
K:Dmaj
A2 FA d~f3|dfef d~B3| A2 FA dfef|1 dBAF ADDB :|2 dBAF ADD2||
|:~a3 a afef|afef d~B3|fb (3bbb bafa|bfaf feef|
b~f3 afed|afef d~B3|(3ABA FA dfef |1 dBAF ADD2 :|2 dBAF ADDB||

